samples/weather-forecast/src/components/Icons/weather-icons/icons/thunderstorms.svg

<svg width="48" height="48" viewBox="0 0 48 48" fill="none" xmlns="http://www.w3.org/2000/svg">
<path fill-rule="evenodd" clip-rule="evenodd" d="M33.8127 21.0641C33.8127 21.0641 33.997 22 34.0599 22.009C37.4537 22.4929 40 24.4725 40 28C40 31.866 36.866 35 33 35H15C11.134 35 8 31.866 8 28C8 24.4725 10.6092 21.5544 14.003 21.0705C14.0659 21.0615 14.1275 21.0596 14.1873 21.0641C15.0889 16.4677 19.1395 13 24 13C28.8605 13 32.9111 16.4677 33.8127 21.0641Z" fill="#F3F3F3"/>
<path d="M33 35H33.4118C37.0503 35 40 32.1272 40 28.5833C40 25.3383 37.5268 22.6559 34.3161 22.2266C33.8697 17.0587 29.4215 13 24 13C19.2043 13 15.1702 16.1758 13.9938 20.486C10.5718 21.1766 8 24.1291 8 27.6667C8 31.5434 11.0886 34.7175 15 34.9822" stroke="#231815" stroke-width="2" stroke-linecap="round" stroke-linejoin="round"/>
<path fill-rule="evenodd" clip-rule="evenodd" d="M26.866 37.5623C26.3877 37.2861 26.2612 36.6099 26.5833 36.0519L28.9167 32.0104C29.2388 31.4524 29.8877 31.2239 30.366 31.5001C30.8443 31.7762 30.9709 32.4524 30.6487 33.0104L28.3154 37.0519C27.9932 37.6099 27.3443 37.8384 26.866 37.5623Z" fill="#231815"/>
<path d="M25.9808 33.1872C25.9396 33.0676 25.8374 32.9812 25.7157 32.9633L21.9947 32.4116L23.7017 28.4818C23.7473 28.376 23.7382 28.2533 23.6769 28.1559C23.6159 28.0588 23.511 28 23.3988 28H18.2022C18.0236 28 17.8772 28.1458 17.8708 28.3297L17.6315 35.3135C17.6255 35.488 17.7481 35.6391 17.9157 35.664L20.5027 36.048L17.0414 42.4926C16.9603 42.6443 17.0015 42.8341 17.1376 42.9357C17.1962 42.9793 17.2639 43 17.3316 43C17.4214 43 17.5105 42.9623 17.5755 42.8894L25.9127 33.5332C25.9958 33.4399 26.022 33.3068 25.9808 33.1872Z" fill="#FFB900"/>
</svg>

<svg xmlns="http://www.w3.org/2000/svg" width="48" height="48" fill="none">
  <path fill="#F3F3F3" fill-rule="evenodd" d="M33.813 21.064s.184.936.247.945C37.454 22.493 40 24.472 40 28a7 7 0 0 1-7 7H15a7 7 0 0 1-.997-13.93.85.85 0 0 1 .184-.006C15.09 16.468 19.14 13 24 13s8.911 3.468 9.813 8.064Z" clip-rule="evenodd"/>
  <path stroke="#231815" stroke-linecap="round" stroke-linejoin="round" stroke-width="2" d="M33 35h.412C37.05 35 40 32.127 40 28.583c0-3.245-2.473-5.927-5.684-6.356C33.87 17.059 29.421 13 24 13c-4.796 0-8.83 3.176-10.006 7.486-3.422.69-5.994 3.643-5.994 7.18 0 3.877 3.089 7.052 7 7.316"/>
  <path fill="#231815" fill-rule="evenodd" d="M26.866 37.562c-.478-.276-.605-.952-.283-1.51l2.334-4.042c.322-.558.97-.786 1.449-.51.478.276.605.952.283 1.51l-2.334 4.042c-.322.558-.97.786-1.449.51Z" clip-rule="evenodd"/>
  <path fill="#FFB900" d="M25.98 33.187a.334.334 0 0 0-.264-.224l-3.721-.551 1.707-3.93a.352.352 0 0 0-.025-.326.33.33 0 0 0-.278-.156h-5.197a.336.336 0 0 0-.331.33l-.24 6.983a.34.34 0 0 0 .285.351l2.587.384-3.462 6.445a.35.35 0 0 0 .097.443.323.323 0 0 0 .438-.047l8.337-9.356a.35.35 0 0 0 .068-.346Z"/>
</svg>
